Newaita-dark/actions/24/edit-paste.svg

<svg height="24" viewBox="0 0 24 24" width="24" xmlns="http://www.w3.org/2000/svg"><g fill="#e0e0e0"><path d="m4.964844 2.179688c-.542969 0-.984375.445312-.984375.988281v8.929687c0 .546875.441406.988282.984375.988282h6.945312c.546875 0 .988282-.441407.988282-.988282v-6.945312c0-.261719-.101563-.511719-.289063-.695313l-1.984375-1.984375c-.183594-.1875-.433594-.292968-.699219-.292968zm.988281 1.976562h3.566406l1.40625 1.40625v5.550781h-4.972656zm0 0"/><path d="m14.882812 2.175781v2.386719l2.984376 2.980469v3.558593h-.007813v7.9375c0 .550782-.441406.992188-.992187.992188h-9.921876c-.550781 0-.992187-.441406-.992187-.992188v-3.96875h-1.984375v4.960938c0 1.101562.886719 1.988281 1.984375 1.988281h11.90625c1.101563 0 1.984375-.886719 1.984375-1.988281v-8.929688h-.003906v-3.96875c0-.261718-.101563-.511718-.289063-.699218l-3.96875-3.96875c-.183593-.183594-.4375-.289063-.699219-.289063zm0 0"/></g></svg>

<?xml version="1.0" encoding="UTF-8"?>
<svg xmlns="http://www.w3.org/2000/svg" xmlns:xlink="http://www.w3.org/1999/xlink" width="24px" height="24px" viewBox="0 0 24 24" version="1.1">
<g id="surface1">
<path style=" stroke:none;fill-rule:nonzero;fill:rgb(87.843138%,87.843138%,87.843138%);fill-opacity:1;" d="M 4.964844 2.179688 C 4.421875 2.179688 3.980469 2.625 3.980469 3.167969 L 3.980469 12.097656 C 3.980469 12.644531 4.421875 13.085938 4.964844 13.085938 L 11.910156 13.085938 C 12.457031 13.085938 12.898438 12.644531 12.898438 12.097656 L 12.898438 5.152344 C 12.898438 4.890625 12.796875 4.640625 12.609375 4.457031 L 10.625 2.472656 C 10.441406 2.285156 10.191406 2.179688 9.925781 2.179688 Z M 5.953125 4.15625 L 9.519531 4.15625 L 10.925781 5.5625 L 10.925781 11.113281 L 5.953125 11.113281 Z M 5.953125 4.15625 "/>
<path style=" stroke:none;fill-rule:nonzero;fill:rgb(87.843138%,87.843138%,87.843138%);fill-opacity:1;" d="M 14.882812 2.175781 L 14.882812 4.5625 L 17.867188 7.542969 L 17.867188 11.101562 L 17.859375 11.101562 L 17.859375 19.039062 C 17.859375 19.589844 17.417969 20.03125 16.867188 20.03125 L 6.945312 20.03125 C 6.394531 20.03125 5.953125 19.589844 5.953125 19.039062 L 5.953125 15.070312 L 3.96875 15.070312 L 3.96875 20.03125 C 3.96875 21.132812 4.855469 22.019531 5.953125 22.019531 L 17.859375 22.019531 C 18.960938 22.019531 19.84375 21.132812 19.84375 20.03125 L 19.84375 11.101562 L 19.839844 11.101562 L 19.839844 7.132812 C 19.839844 6.871094 19.738281 6.621094 19.550781 6.433594 L 15.582031 2.464844 C 15.398438 2.28125 15.144531 2.175781 14.882812 2.175781 Z M 14.882812 2.175781 "/>
</g>
</svg>
